components/2.0/icon/icons/icon-text-22px.svg

<svg width="22" height="22" xmlns="http://www.w3.org/2000/svg"><path d="M11 3H4v5h1c0-2 .8-3 3-3h2v10.8c0 2-2 2.2-3 2.2v1h8v-1c-1 0-3-.2-3-2.2V5h2c2.2 0 3 1 3 3h1V3h-7z" fill="#3D4752" fill-rule="evenodd"/></svg>

<?xml version="1.0" encoding="UTF-8" standalone="no"?>
<svg width="22px" height="22px" viewBox="0 0 22 22" version="1.1" xmlns="http://www.w3.org/2000/svg" xmlns:xlink="http://www.w3.org/1999/xlink" xmlns:sketch="http://www.bohemiancoding.com/sketch/ns">
    <!-- Generator: Sketch 3.4.4 (17249) - http://www.bohemiancoding.com/sketch -->
    <title>icon-text-22px</title>
    <desc>Created with Sketch.</desc>
    <defs></defs>
    <g id="22px" stroke="none" stroke-width="1" fill="none" fill-rule="evenodd" sketch:type="MSPage">
        <g id="icon-text-22px" sketch:type="MSArtboardGroup" fill="#3D4752">
            <path d="M11,3 L4,3 L4,8 L5,8 C5,6 5.8,5 8,5 L10,5 L10,15.8 C10,17.8 7.9,18 7,18 L7,19 L11,19 L15,19 L15,18 C14,17.9 12,17.8 12,15.8 L12,5 L14,5 C16.2,5 17,6 17,8 L18,8 L18,3 L11,3 L11,3 Z" id="Shape" sketch:type="MSShapeGroup"></path>
        </g>
    </g>
</svg>
